images/nav_items/New_cycle.svg

<svg width="60" height="60" viewBox="0 0 60 60" fill="none" xmlns="http://www.w3.org/2000/svg">
<circle cx="30" cy="30" r="29" stroke="black" stroke-opacity="0.6" stroke-width="2"/>
<path d="M13.5632 29.316V35H11.2672V25.06H13.0872L17.6932 30.912V25.06H19.9892V35H18.1132L13.5632 29.316ZM31.6763 32.984V35H24.6903V25.06H31.5503V27.076H26.9863V29.008H30.9063V30.87H26.9863V32.984H31.6763ZM39.1471 25.074H41.2611L42.2971 28.252L43.3331 25.074H45.4611L43.7671 29.694L44.7751 32.34L47.2671 25.06H49.7731L45.8951 35H43.9071L42.2971 31.108L40.7011 35H38.6991L34.8351 25.06H37.3271L39.8331 32.34L40.8131 29.694L39.1471 25.074Z" fill="black" fill-opacity="0.6"/>
</svg>

<svg width="60" height="60" fill="none" xmlns="http://www.w3.org/2000/svg"><circle cx="30" cy="30" r="29" stroke="#000" stroke-opacity=".6" stroke-width="2"/><path d="M13.56 29.32V35h-2.3v-9.94h1.83l4.6 5.85v-5.85H20V35H18.1l-4.55-5.68Zm18.12 3.66V35h-6.99v-9.94h6.86v2.02h-4.56V29h3.92v1.86h-3.92v2.11h4.69Zm7.47-7.9h2.11l1.04 3.17 1.03-3.18h2.13l-1.7 4.62 1.02 2.65 2.49-7.28h2.5L45.9 35h-2l-1.6-3.9-1.6 3.9h-2l-3.86-9.94h2.49l2.5 7.28.98-2.65-1.66-4.62Z" fill="#000" fill-opacity=".6"/></svg>
